img/viber-icon.svg

<svg width="23" height="24" viewBox="0 0 23 24" fill="none" xmlns="http://www.w3.org/2000/svg">
<path d="M20.1942 2.33729C19.5989 1.78886 17.1895 0.0404199 11.8177 0.0169824C11.8177 0.0169824 5.48486 -0.362705 2.40049 2.46854C0.684862 4.18417 0.0801742 6.70135 0.0145492 9.81854C-0.0510758 12.9357 -0.130763 18.7763 5.49892 20.3607H5.50361L5.49892 22.7795C5.49892 22.7795 5.46142 23.7592 6.1083 23.956C6.88642 24.1998 7.3458 23.4545 8.09111 22.6529C8.49892 22.2123 9.06142 21.5654 9.48799 21.0732C13.3411 21.3967 16.2989 20.656 16.6364 20.5482C17.4146 20.2951 21.8161 19.7326 22.5286 13.892C23.2692 7.86385 22.1724 4.05761 20.1942 2.33729ZM20.8458 13.4514C20.2411 18.3263 16.6739 18.6357 16.0177 18.8467C15.7364 18.9357 13.1349 19.5826 9.86767 19.3717C9.86767 19.3717 7.43017 22.3107 6.6708 23.0748C6.42236 23.3232 6.15049 23.2998 6.15517 22.8076C6.15517 22.4842 6.17392 18.7904 6.17392 18.7904C6.16924 18.7904 6.16924 18.7904 6.17392 18.7904C1.40205 17.4685 1.6833 12.4951 1.73486 9.89354C1.78642 7.29198 2.27861 5.15917 3.73174 3.72479C6.34267 1.35761 11.7192 1.70917 11.7192 1.70917C16.2614 1.72792 18.4364 3.09667 18.9427 3.55604C20.6161 4.99042 21.4692 8.42167 20.8458 13.4514ZM14.3302 9.66385C14.3489 10.067 13.7442 10.0951 13.7255 9.69198C13.6739 8.66073 13.1911 8.15917 12.1974 8.10292C11.7942 8.07948 11.8317 7.47479 12.2302 7.49823C13.538 7.56854 14.2645 8.31854 14.3302 9.66385ZM15.2817 10.1935C15.3286 8.20604 14.0864 6.64979 11.7286 6.47635C11.3302 6.44823 11.3724 5.84354 11.7708 5.87167C14.4895 6.06854 15.938 7.93885 15.8864 10.2076C15.8817 10.6107 15.2724 10.592 15.2817 10.1935ZM17.4849 10.8217C17.4895 11.2248 16.8802 11.2295 16.8802 10.8264C16.852 7.00604 14.3067 4.92479 11.2177 4.90135C10.8192 4.89667 10.8192 4.29667 11.2177 4.29667C14.6724 4.32011 17.4521 6.70604 17.4849 10.8217ZM16.9552 15.4201V15.4295C16.4489 16.3201 15.5021 17.3045 14.5271 16.9904L14.5177 16.9763C13.5286 16.6998 11.1989 15.4998 9.72705 14.3279C8.96767 13.7279 8.27392 13.0201 7.73955 12.3404C7.25674 11.7357 6.76924 11.0185 6.2958 10.156C5.29736 8.35135 5.07705 7.5451 5.07705 7.5451C4.76299 6.5701 5.74267 5.62323 6.63799 5.11698H6.64736C7.07861 4.89198 7.49111 4.96698 7.76767 5.29979C7.76767 5.29979 8.34892 5.99354 8.59736 6.33573C8.83174 6.65448 9.1458 7.16542 9.30986 7.45135C9.5958 7.96229 9.41767 8.4826 9.13642 8.69823L8.57392 9.14823C8.28799 9.37792 8.32549 9.80448 8.32549 9.80448C8.32549 9.80448 9.15986 12.9592 12.2771 13.756C12.2771 13.756 12.7036 13.7935 12.9333 13.5076L13.3833 12.9451C13.5989 12.6639 14.1192 12.4857 14.6302 12.7717C15.3192 13.1607 16.1958 13.7654 16.7771 14.3138C17.1052 14.581 17.1802 14.9888 16.9552 15.4201Z" fill="#7B519D"/>
</svg>

<svg width="23" height="24" fill="none" xmlns="http://www.w3.org/2000/svg"><path d="M20.194 2.337C19.6 1.79 17.19.04 11.818.017c0 0-6.333-.38-9.418 2.452C.685 4.184.08 6.7.015 9.819c-.066 3.117-.146 8.957 5.484 10.542h.005l-.005 2.418s-.038.98.61 1.177c.777.244 1.237-.502 1.982-1.303.408-.44.97-1.088 1.397-1.58 3.853.324 6.81-.417 7.148-.525.779-.253 5.18-.815 5.893-6.656.74-6.028-.357-9.834-2.335-11.555zm.652 11.114c-.605 4.875-4.172 5.185-4.828 5.396-.282.089-2.883.736-6.15.525 0 0-2.438 2.939-3.197 3.703-.249.248-.52.225-.516-.267 0-.324.019-4.018.019-4.018-.005 0-.005 0 0 0-4.772-1.322-4.49-6.295-4.44-8.896.052-2.602.545-4.735 1.998-6.17 2.61-2.366 7.987-2.015 7.987-2.015 4.542.019 6.717 1.388 7.224 1.847 1.673 1.434 2.526 4.866 1.903 9.895zM14.33 9.664c.019.403-.586.431-.604.028-.052-1.031-.535-1.533-1.529-1.59-.403-.023-.365-.627.033-.604 1.308.07 2.034.82 2.1 2.166zm.952.53c.047-1.988-1.196-3.544-3.553-3.718-.399-.028-.357-.632.042-.604 2.718.197 4.167 2.067 4.115 4.336-.004.403-.614.384-.604-.014zm2.203.628c.005.403-.605.408-.605.004-.028-3.82-2.573-5.901-5.662-5.925-.399-.004-.399-.604 0-.604 3.454.023 6.234 2.409 6.267 6.525zm-.53 4.598v.01c-.506.89-1.453 1.875-2.428 1.56l-.01-.014c-.988-.276-3.318-1.476-4.79-2.648A12.2 12.2 0 017.74 12.34a15.212 15.212 0 01-1.444-2.184c-.999-1.805-1.219-2.61-1.219-2.61-.314-.976.666-1.923 1.561-2.429h.01c.43-.225.843-.15 1.12.183 0 0 .58.694.83 1.036.234.318.548.83.712 1.115.286.511.108 1.032-.174 1.247l-.562.45c-.286.23-.249.656-.249.656s.835 3.155 3.952 3.952c0 0 .427.037.656-.248l.45-.563c.216-.281.736-.46 1.247-.173.69.389 1.566.993 2.147 1.542.328.267.403.675.178 1.106z" fill="#7B519D"/></svg>
